X: 1
T: Dancing Holstein, The
M: 6/8
L: 1/8
R: jig
K: Gmaj
F|:G3 BAG|ABF D2D|G3 dcB|AAF EED|
GAB EFG|Bcd dcB|ABG AFD|GGF G2[&quot;2x&quot;dD]:|
|:~g3 edc|BdG AGE|DEG GAB|edd d2d|
|1~g3 efd|dcB BAG|cde egd|AGF ABd:|
|2~g3 eda|bdb age|gfe ecd|AGF G3||
